X:1
T:Haud Awa'
M:3/4
L:1/8
K:Eb
 E| GB B3 c| BG F3 F| GB B3c/2-e/2| e2 eB z F| AA A2 c2| BG F3G/2-B/2|\
 ec/2-e/2 B2E-F| G2 FE z||
